Catalina-dark/actions/22/draw-line.svg

<svg viewBox="0 0 22 22" xmlns="http://www.w3.org/2000/svg">
<defs>
<style id="current-color-scheme" type="text/css">.ColorScheme-Text {
        color:#dedede
      }</style>
</defs>
<path class="ColorScheme-Text" d="m16 3v2.3125l-10.688 10.688h-2.3125v3h3v-2.3125l10.688-10.688h2.3125v-3h-3z" fill="currentColor"/>
</svg>

<svg xmlns="http://www.w3.org/2000/svg" viewBox="0 0 22 22">
  <defs id="defs3051">
    <style type="text/css" id="current-color-scheme">
      .ColorScheme-Text {
        color:#f2f2f2
      }
      </style>
  </defs>
 <path 
     style="fill:currentColor;fill-opacity:1;stroke:none"      
	 class="ColorScheme-Text"
     d="M 16 3 L 16 5.3125 L 5.3125 16 L 3 16 L 3 19 L 6 19 L 6 16.6875 L 16.6875 6 L 19 6 L 19 3 L 16 3 z "
     />
</svg>
